Origami/16x16/apps/dragon-ball-online-global.svg

<svg width="16" height="16" version="1.1" viewBox="0 0 16 16" xmlns="http://www.w3.org/2000/svg">
 <path d="M 8.0000001,-2.4e-7 A 8.0000001,8.0000001 0 0 0 -4e-8,7.9999999 8.0000001,8.0000001 0 0 0 8.0000001,16 8.0000001,8.0000001 0 0 0 16,7.9999999 8.0000001,8.0000001 0 0 0 8.0000001,-2.4e-7 Z" style="fill:#f4b400"/>
 <path d="m6.9766249 0.03431176c-1.0404534 0.13187086-2.0152 0.46354744-2.889558 0.95303487l0.5679011 0.14216657 0.3671472 0.2569937v0.2202837l0.6249006 0.404634-0.1468578 0.5882189-0.3302482-0.2570566-0.2211178 0.2569995-0.2571137 0.1468405-0.1468977-0.4413214 0.0731917-0.2569994-0.0731917-0.1835792-0.3679583-0.3312194h-0.1468577l0.1468577 0.3679183v0.3304251c-0.144612-0.040224-0.2932809-0.0545651-0.4413214-0.07342l0.40464 0.2944923 0.036716 0.1835677 0.4780657 0.404634 0.4772889-0.1101417v-0.2944923l0.2210663 0.146852-0.1101417 0.2577763h0.3671468l0.1843506 0.3304255 0.2202894 0.2577765 0.4413555 0.073426-0.257782 0.2569938-0.073432 0.2577763h0.331208l0.4038572 0.2202837v0.6616391h-0.1835734l-0.1835736 0.1835677-0.40464-0.1835677-0.1468574-0.404634-0.294498-0.1835677-0.036716-0.146852-0.4772886-0.1101417-0.2577823 0.2937094-0.2937151 0.146852 0.1835734 0.3312023-0.2569994-0.073426-0.1476406-0.3312023 0.331214-0.3671354h-0.1468577l-0.294538 0.2569994-0.0734774 0.3679583-0.2569995 0.3302483-0.0734203-0.4770889-0.1476403-0.0742774c-0.155668 0.1648843-0.2727462 0.3659243-0.4038571 0.551486l-0.5147814 0.036716-0.2577823 0.1843506 0.1109245 0.1835677 0.2937152 0.2569937h0.40464l0.5514974-0.1835677 0.2569995 0.036716 0.2202891 0.2202837 0.5882192-0.5882191 0.4046397-0.1101417 0.5882191 0.073426 0.5514975 0.1476345c0.300326 0.3473949 0.5976466 0.7046629 0.8819 1.0654792l0.331208 0.8459612-0.1476403 0.146852 0.294498 0.4413443-0.3312083 0.7717411c-0.2677237 0.3089931-0.5411786 0.6094163-0.8084797 0.9186383l-0.4046397-0.3304254-0.1468577 0.1835677-0.4413558-0.2569995-0.1468574 0.1468578h-0.4038571l-0.2577823 0.2937094 0.1468577 0.5147758-0.2937152 0.331203 0.036716 0.588219-0.2569994 0.440567 0.1835734 0.367918c0.015671 0.267536 0.036716 0.540887 0.036716 0.80848-0.1290311 0.362502-0.2827965 0.70112-0.40464 1.066279l-0.073426 0.588219v0.29371h-0.2202834l-0.367924-0.220284h-0.3507374c1.3099086 0.936237 2.9118983 1.492745 4.6518155 1.492745 1.3065374 0 2.5343986-0.316907 3.6214176-0.867845l0.01797-0.03671-0.257783-0.257-0.07343-0.257776-0.4038593-0.110147-0.294498-0.80848 0.073432-0.183567-0.183574-0.331203-0.478066-0.110142-0.220289-0.551486 0.0367157-0.735059-0.367924-0.514776-0.0367157-0.514776c0.5016231-0.253789 0.973032-0.510457 1.470919-0.7717411l0.256999-0.514776 0.441356-0.1101417 0.256999-0.6616395 0.588219 0.073426 0.551498-0.4038514 0.551497 0.5139932v0.073426c0.16645-0.049051 0.366576-0.053925 0.514782-0.1468518l0.110142-0.3671357v-0.3679183l0.367146 0.036716c-0.030579-0.2471205-0.079442-0.5246948-0.110141-0.7717411h0.221066l0.220284 0.2937097 0.220289 0.1101417 0.294498-0.1835677 0.03672-0.3671357-0.03672-0.441344-0.478072-0.3312026h-0.367146l-0.074209-0.2202834-0.440573 0.1101417-0.331208 0.4046283-0.073432-0.6983209-0.588219-0.47806-0.183573-0.551486-0.441356-0.1835677-0.256999-0.3312026-0.551498-0.1101417-0.257782-0.4413443h0.80928l-0.514782-0.2202834h-0.367924l-0.477289-0.1835678-0.07421 0.4772772-0.220284-0.3304254 0.256999-0.1835678-0.07343-0.1843505 0.184356-0.1835678 0.220283-0.036714-0.07343-0.2202837 0.183574-0.3312023 0.367924 0.1468517-0.07343-0.2937094 0.440573-0.2577766 0.331208 0.6249006-0.03672 0.1843505 0.330431 0.146852 0.221067 0.47806 0.07343-0.4413443 0.588219-0.2202834 0.110142-0.3312026-0.771798-0.4413443-0.331208-0.3304254-0.03672-0.404634 0.01953-0.011717c-0.083972-0.0557658-0.174248-0.1052458-0.261666-0.1585541l0.132796 0.3187066h-0.367924l-0.110142-0.2944923-0.330431 0.2569937h-0.294498v-0.2937094l0.331208-0.14763485 0.293715 0.18435055-0.03672-0.073426c-0.147407-0.10673055-0.289677-0.22854541-0.439946-0.33121941l-0.367924 0.11092457c-0.228511 0.15839914-0.432939 0.31911224-0.661639 0.47727714l-0.3679237-0.3304251 0.4046397-0.14685776 0.146858-0.36791829 0.286687-0.03202714c-0.154839-0.05719343-0.309108-0.11535829-0.467947-0.16318143l-0.7374018 0.52648886v0.33042546l0.2937152 0.3312026-0.4038572 0.8084797-0.294498-0.146852-0.3304311-0.551486c-0.4936583-0.1556966-0.9684615-0.3362477-1.4346943-0.5515375l0.0367157 0.2202838-0.2202891 0.1476345-0.4046401-0.2944923 0.1843563-0.22028368 0.2937155 0.14685198 0.0367157-0.036714-0.361102-0.98503114zm-3.6777543 1.4623483c-0.1249003 0.0907325-0.2517429 0.1788368-0.3710437 0.2764828l0.1460748 0.1648215 0.4046397-0.4413443h-0.1796651zm3.0465115 0.4046343h0.2210665v0.2202834l-0.1468577 0.1835677v0.3312026l0.073432 0.47806-0.3679243-0.073426-0.2937154-0.2577763 0.2569994-0.2569937c0.0805795-0.2190494 0.1560966-0.4148103 0.2569995-0.6249006zm0.5514974 0.47806 0.2210666 0.073426l-0.036716 0.4405671-0.331208-0.1835677 0.1468574-0.3304254zm-5.734207 3.749232-0.33121947 0.3673869-0.36715838-0.0365674c-0.12923106 0.1197008-0.25770792 0.2224548-0.37808283 0.3421382-0.05506232 0.3803172-0.08514463 0.7693986-0.08514463 1.1654681 0 2.6265018 1.2591144 4.9417248 3.2027225 6.3981318l-0.4976006-0.59079 0.07422-0.257114-0.4413211-0.367958 0.3304194-0.33082-0.3671583-0.293681-0.3679011-0.220546-0.1468574-0.184351 0.1101417-0.403851v-1.029541l-0.2936813-0.625072-0.3312194-0.3679578-0.40464-0.9553203v-0.2577766c0.1892129 0.024323 0.3663586 0.060799 0.5514975 0.074209l-0.3671469-0.4046287-0.51478157-0.3679183-0.29449807-0.3304254v-0.3312023c0.06307855-0.1217006 0.12090058-0.2828252 0.18437909-0.4039543l0.25699943 0.3304254 0.18357338-0.2569937 0.29449804-0.2210606v-0.4405671zm1.4334378 0.1835677-0.3304312 0.4038512-0.4413557 0.9193814-0.2569995 0.2937098 0.1468577 0.3312022-0.2569994 0.2937098c0.1073992 0.00706 0.2200606 0 0.3304312 0 0.2004914-0.4298543 0.3621017-0.8735581 0.5147815-1.3232786l0.2569994-0.2937095 0.1476406-0.551486-0.1109246-0.073426zm13.397338 1.4449789c-0.01466 0.025626-0.05312 0.099206-0.05312 0.099206l-0.6249 0.3679183-0.66164 0.1835677-0.257782 0.3679183-0.440572 0.3304255-0.221067-0.073426-0.183573 0.1101417v0.036716l0.220289 0.6983206 0.184351 0.2577769-0.03672 0.146852 0.146857 0.551486-0.551497 0.992859-0.551498 0.513993-0.256999 0.331202 0.03672 0.771741-0.184357 0.404634 0.13514 0.593647c2.002515-1.451035 3.305853-3.802083 3.305853-6.4746941 0-0.070421-0.0036-0.1401557-0.0054-0.2101249z" style="fill:#ffffff;opacity:.2"/>
 <path d="m4.857143 7.8319132-0.7063247-1.4311696-1.5793894-0.2294988 1.1428569-1.1140104-0.2697919-1.5730077 1.4126491 0.7426734 1.4126489-0.7426734-0.2697918 1.5730078 1.1428569 1.1140102-1.5793896 0.2294989z" style="fill:#ffffff"/>
 <path d="m10.285714 6.4595573-0.7063245-1.4311697-1.5793894-0.2294987 1.1428569-1.1140105-0.2697919-1.5730076l1.4126489 0.7426734 1.412649-0.7426735-0.269792 1.5730078 1.142857 1.1140102-1.579389 0.229499z" style="fill:#ffffff"/>
 <path d="m5.4285718 13.546199-0.7063247-1.43117-1.5793895-0.229499 1.142857-1.11401-0.2697919-1.5730079 1.4126491 0.7426734 1.4126488-0.7426735-0.2697917 1.573008 1.1428569 1.11401-1.5793896 0.229499z" style="fill:#ffffff"/>
 <path d="m11.714286 11.831914-0.706325-1.43117-1.5793892-0.229499 1.1428572-1.1140101-0.269792-1.5730077 1.412649 0.7426734 1.412649-0.7426735-0.269792 1.5730079 1.142857 1.11401-1.57939 0.229499z" style="fill:#ffffff"/>
</svg>

<svg xmlns="http://www.w3.org/2000/svg" width="16" height="16" version="1.1" viewBox="0 0 16 16">
 <path style="fill:#f4b400" d="M 8.0000001,-2.4e-7 A 8.0000001,8.0000001 0 0 0 -4e-8,7.9999999 8.0000001,8.0000001 0 0 0 8.0000001,16 8.0000001,8.0000001 0 0 0 16,7.9999999 8.0000001,8.0000001 0 0 0 8.0000001,-2.4e-7 Z"/>
 <path style="opacity:0.2;fill:#ffffff" d="m 6.9766249,0.03431176 c -1.0404534,0.13187086 -2.0152,0.46354744 -2.889558,0.95303487 l 0.5679011,0.14216657 0.3671472,0.2569937 0,0.2202837 0.6249006,0.404634 L 5.500158,2.5996435 5.1699098,2.3425869 4.948792,2.5995864 4.6916783,2.7464269 4.5447806,2.3051055 4.6179723,2.0481061 4.5447806,1.8645269 4.1768223,1.5333075 l -0.1468577,0 0.1468577,0.3679183 0,0.3304251 C 4.0322103,2.1914269 3.8835414,2.1770858 3.7355009,2.1582309 l 0.40464,0.2944923 0.036716,0.1835677 0.4780657,0.404634 0.4772889,-0.1101417 0,-0.2944923 0.2210663,0.146852 -0.1101417,0.2577763 0.3671468,0 0.1843506,0.3304255 0.2202894,0.2577765 0.4413555,0.073426 -0.257782,0.2569938 -0.073432,0.2577763 0.331208,0 0.4038572,0.2202837 0,0.6616391 -0.1835734,0 L 6.4929826,5.2828078 6.0883426,5.0992401 5.9414852,4.6946061 5.6469872,4.5110384 5.6102712,4.3641864 5.1329826,4.2540447 4.8752003,4.5477541 4.5814852,4.6946061 4.7650586,5.0258084 4.5080592,4.9523824 4.3604186,4.6211801 l 0.331214,-0.3671354 -0.1468577,0 L 4.2502369,4.5110441 4.1767595,4.8790024 3.91976,5.2092507 3.8463397,4.7321618 3.6986994,4.6578844 C 3.5430314,4.8227687 3.4259532,5.0238087 3.2948423,5.2093704 l -0.5147814,0.036716 -0.2577823,0.1843506 0.1109245,0.1835677 0.2937152,0.2569937 0.40464,0 0.5514974,-0.1835677 0.2569995,0.036716 0.2202891,0.2202837 0.5882192,-0.5882191 0.4046397,-0.1101417 0.5882191,0.073426 0.5514975,0.1476345 c 0.300326,0.3473949 0.5976466,0.7046629 0.8819,1.0654792 l 0.331208,0.8459612 -0.1476403,0.146852 0.294498,0.4413443 -0.3312083,0.7717411 C 7.2539535,9.047501 6.9804986,9.3479242 6.7131975,9.6571462 L 6.3085578,9.3267208 6.1617001,9.5102885 5.7203443,9.253289 5.5734869,9.4001468 l -0.4038571,0 -0.2577823,0.2937094 0.1468577,0.5147758 -0.2937152,0.331203 0.036716,0.588219 -0.2569994,0.440567 0.1835734,0.367918 c 0.015671,0.267536 0.036716,0.540887 0.036716,0.80848 -0.1290311,0.362502 -0.2827965,0.70112 -0.40464,1.066279 l -0.073426,0.588219 0,0.29371 -0.2202834,0 -0.367924,-0.220284 -0.3507374,0 c 1.3099086,0.936237 2.9118983,1.492745 4.6518155,1.492745 1.3065374,0 2.5343986,-0.316907 3.6214176,-0.867845 l 0.01797,-0.03671 -0.257783,-0.257 -0.07343,-0.257776 L 10.904116,14.43621 10.609618,13.62773 10.68305,13.444163 10.499476,13.11296 10.02141,13.002818 9.801121,12.451332 9.8378367,11.716273 9.4699127,11.201497 9.433197,10.686721 c 0.5016231,-0.253789 0.973032,-0.510457 1.470919,-0.7717411 l 0.256999,-0.514776 0.441356,-0.1101417 0.256999,-0.6616395 0.588219,0.073426 0.551498,-0.4038514 0.551497,0.5139932 0,0.073426 c 0.16645,-0.049051 0.366576,-0.053925 0.514782,-0.1468518 l 0.110142,-0.3671357 0,-0.3679183 0.367146,0.036716 C 14.512175,7.7931062 14.463312,7.5155319 14.432613,7.2684856 l 0.221066,0 0.220284,0.2937097 0.220289,0.1101417 0.294498,-0.1835677 0.03672,-0.3671357 -0.03672,-0.441344 -0.478072,-0.3312026 -0.367146,0 L 14.469323,6.1288036 14.02875,6.2389453 13.697542,6.6435736 13.62411,5.9452527 13.035891,5.4671927 12.852318,4.9157067 12.410962,4.732139 12.153963,4.4009364 11.602465,4.2907947 11.344683,3.8494504 l 0.80928,0 -0.514782,-0.2202834 -0.367924,0 -0.477289,-0.1835678 -0.07421,0.4772772 -0.220284,-0.3304254 0.256999,-0.1835678 -0.07343,-0.1843505 0.184356,-0.1835678 0.220283,-0.036714 -0.07343,-0.2202837 0.183574,-0.3312023 0.367924,0.1468517 -0.07343,-0.2937094 0.440573,-0.2577766 0.331208,0.6249006 -0.03672,0.1843505 0.330431,0.146852 0.221067,0.47806 0.07343,-0.4413443 0.588219,-0.2202834 0.110142,-0.3312026 -0.771798,-0.4413443 -0.331208,-0.3304254 -0.03672,-0.404634 0.01953,-0.011717 C 12.346502,1.2455769 12.256226,1.1960969 12.168808,1.1427886 l 0.132796,0.3187066 -0.367924,0 -0.110142,-0.2944923 -0.330431,0.2569937 -0.294498,0 0,-0.2937094 0.331208,-0.14763485 0.293715,0.18435055 -0.03672,-0.073426 C 11.639405,0.98684635 11.497135,0.86503149 11.346866,0.76235749 L 10.978942,0.87328206 C 10.750431,1.0316812 10.546003,1.1923943 10.317303,1.3505592 L 9.9493793,1.0201341 10.354019,0.87327634 10.500877,0.50535805 10.787564,0.47333091 C 10.632725,0.41613748 10.478456,0.35797262 10.319617,0.31014948 l -0.7374018,0.52648886 0,0.33042546 L 9.8759304,1.4982664 9.4720732,2.3067461 9.1775752,2.1598941 8.8471441,1.6084081 C 8.3534858,1.4527115 7.8786826,1.2721604 7.4124498,1.0568706 L 7.4491655,1.2771544 7.2288764,1.4247889 6.8242363,1.1302966 7.0085926,0.91001292 7.3023081,1.0568649 7.3390238,1.0201509 6.9779218,0.03511976 Z M 3.2988706,1.4966601 C 3.1739703,1.5873926 3.0471277,1.6754969 2.9278269,1.7731429 l 0.1460748,0.1648215 0.4046397,-0.4413443 -0.1796651,0 z m 3.0465115,0.4046343 0.2210665,0 0,0.2202834 -0.1468577,0.1835677 0,0.3312026 0.073432,0.47806 L 6.1250986,3.0409821 5.8313832,2.7832058 6.0883826,2.5262121 C 6.1689621,2.3071627 6.2444792,2.1114018 6.3453821,1.9013115 Z m 0.5514974,0.47806 0.2210666,0.073426 L 7.0812301,2.8933475 6.7500221,2.7097798 6.8968795,2.3793544 Z M 1.1626725,6.1285864 0.83145303,6.4959733 0.46429465,6.4594059 C 0.33506359,6.5791067 0.20658673,6.6818607 0.08621182,6.8015441 0.0311495,7.1818613 0.00106719,7.5709427 0.00106719,7.9670122 c 0,2.6265018 1.25911441,4.9417248 3.20272251,6.3981318 L 2.7061891,13.774354 2.7804091,13.51724 2.339088,13.149282 2.6695074,12.818462 2.3023491,12.524781 1.934448,12.304235 1.7875906,12.119884 l 0.1101417,-0.403851 0,-1.029541 L 1.604051,10.06142 1.2728316,9.6934622 l -0.40464,-0.9553203 0,-0.2577766 c 0.1892129,0.024323 0.3663586,0.060799 0.5514975,0.074209 L 1.0525422,8.1499456 0.53776063,7.7820273 0.24326256,7.4516019 l 0,-0.3312023 C 0.30634111,6.998699 0.36416314,6.8375744 0.42764165,6.7164453 L 0.68464108,7.0468707 0.86821446,6.789877 1.1627125,6.5688164 l 0,-0.4405671 z M 2.5961103,6.3121541 2.2656791,6.7160053 1.8243234,7.6353867 1.5673239,7.9290965 1.7141816,8.2602987 1.4571822,8.5540085 c 0.1073992,0.00706 0.2200606,0 0.3304312,0 C 1.9881048,8.1241542 2.1497151,7.6804504 2.3023949,7.2307299 L 2.5593943,6.9370204 2.7070349,6.3855344 2.5961103,6.3121084 Z M 15.993448,7.757133 c -0.01466,0.025626 -0.05312,0.099206 -0.05312,0.099206 l -0.6249,0.3679183 -0.66164,0.1835677 -0.257782,0.3679183 -0.440572,0.3304255 -0.221067,-0.073426 -0.183573,0.1101417 0,0.036716 0.220289,0.6983206 0.184351,0.2577769 -0.03672,0.146852 0.146857,0.551486 -0.551497,0.992859 -0.551498,0.513993 -0.256999,0.331202 0.03672,0.771741 -0.184357,0.404634 0.13514,0.593647 c 2.002515,-1.451035 3.305853,-3.802083 3.305853,-6.4746941 0,-0.070421 -0.0036,-0.1401557 -0.0054,-0.2101249 z"/>
 <path style="fill:#ffffff" d="M 4.857143,7.8319132 4.1508183,6.4007436 2.5714289,6.1712448 3.7142858,5.0572344 3.4444939,3.4842267 4.857143,4.2269001 6.2697919,3.4842267 6.0000001,5.0572345 7.142857,6.1712447 5.5634674,6.4007436 Z"/>
 <path style="fill:#ffffff" d="M 10.285714,6.4595573 9.5793895,5.0283876 8.0000001,4.7988889 9.142857,3.6848784 8.8730651,2.1118708 l 1.4126489,0.7426734 1.412649,-0.7426735 -0.269792,1.5730078 1.142857,1.1140102 -1.579389,0.229499 z"/>
 <path style="fill:#ffffff" d="M 5.4285718,13.546199 4.7222471,12.115029 3.1428576,11.88553 4.2857146,10.77152 4.0159227,9.1985121 5.4285718,9.9411855 6.8412206,9.198512 6.5714289,10.77152 7.7142858,11.88553 6.1348962,12.115029 Z"/>
 <path style="fill:#ffffff" d="M 11.714286,11.831914 11.007961,10.400744 9.4285718,10.171245 10.571429,9.0572349 10.301637,7.4842272 11.714286,8.2269006 13.126935,7.4842271 12.857143,9.057235 14,10.171245 12.42061,10.400744 Z"/>
</svg>
